www/assets/icons/timer.svg

<svg xmlns="http://www.w3.org/2000/svg" width="24" height="24" viewBox="0 0 24 24" fill='currentColor'><path d="M15 1.5H9v2h6zm4.03 6.39 1.42-1.42c-.43-.51-.9-.99-1.41-1.41l-1.42 1.42A8.96 8.96 0 0 0 12 4.5a9 9 0 0 0-9 9c0 4.97 4.02 9 9 9a8.994 8.994 0 0 0 7.03-14.61M13 14.5h-2v-6h2z"/></svg>

<svg width="24" height="24" viewBox="0 0 24 24" xmlns="http://www.w3.org/2000/svg" fill='currentColor'><path d="M15 1.5H9V3.5H15V1.5Z"/><path d="M19.03 7.89L20.45 6.47C20.02 5.96 19.55 5.48 19.04 5.06L17.62 6.48C16.07 5.24 14.12 4.5 12 4.5C7.03 4.5 3 8.53 3 13.5C3 18.47 7.02 22.5 12 22.5C16.98 22.5 21 18.47 21 13.5C21 11.38 20.26 9.43 19.03 7.89ZM13 14.5H11V8.5H13V14.5Z"/></svg>
